components/2.0/icon/icons/icon-calendar-22px.svg

<svg width="22" height="22" xmlns="http://www.w3.org/2000/svg"><path d="M18 4h-1V2h-2v2H7V2H5v2H4C3 4 2 5 2 6v12c0 1 1 2 2 2h14c1 0 2-1 2-2V6c0-1-1-2-2-2zm0 3v3h-4V7h4zm-9 7v-3h4v3H9zm4 1v3H9v-3h4zm-5-1H4v-3h4v3zm6-3h4v3h-4v-3zm-1-4v3H9V7h4zM8 7v3H4V7h4zm-4 8h4v3H4v-3zm10 3v-3h4v3h-4z" fill="#5A5A5A" fill-rule="evenodd"/></svg>

<?xml version="1.0" encoding="UTF-8" standalone="no"?>
<svg width="22px" height="22px" viewBox="0 0 22 22" version="1.1" xmlns="http://www.w3.org/2000/svg" xmlns:xlink="http://www.w3.org/1999/xlink" xmlns:sketch="http://www.bohemiancoding.com/sketch/ns">
    <!-- Generator: Sketch 3.4.4 (17249) - http://www.bohemiancoding.com/sketch -->
    <title>icon-calendar-22px</title>
    <desc>Created with Sketch.</desc>
    <defs></defs>
    <g id="22px" stroke="none" stroke-width="1" fill="none" fill-rule="evenodd" sketch:type="MSPage">
        <g id="icon-calendar-22px" sketch:type="MSArtboardGroup" fill="#5A5A5A">
            <path d="M18,4 L17,4 L17,2 L15,2 L15,4 L7,4 L7,2 L5,2 L5,4 L4,4 C2.9,4 2,4.9 2,6 L2,18 C2,19.1 2.9,20 4,20 L18,20 C19.1,20 20,19.1 20,18 L20,6 C20,4.9 19.1,4 18,4 L18,4 Z M18,7 L18,10 L14,10 L14,7 L18,7 L18,7 Z M9,14 L9,11 L13,11 L13,14 L9,14 L9,14 Z M13,15 L13,18 L9,18 L9,15 L13,15 L13,15 Z M8,14 L4,14 L4,11 L8,11 L8,14 L8,14 Z M14,11 L18,11 L18,14 L14,14 L14,11 L14,11 Z M13,7 L13,10 L9,10 L9,7 L13,7 L13,7 Z M8,7 L8,10 L4,10 L4,7 L8,7 L8,7 Z M4,15 L8,15 L8,18 L4,18 L4,15 L4,15 Z M14,18 L14,15 L18,15 L18,18 L14,18 L14,18 Z" id="Shape" sketch:type="MSShapeGroup"></path>
        </g>
    </g>
</svg>
